src/assets/footer/Opensee.svg

<svg fill="none" height="37" viewBox="0 0 36 37" width="36" xmlns="http://www.w3.org/2000/svg"><circle cx="18" cy="18.7598" r="17.25" stroke="#000" stroke-opacity=".1" stroke-width="1.5"/><g fill="#000" fill-opacity=".5"><path d="m10.8407 19.4075.0602-.0945 3.6251-5.6715c.0121-.0188.029-.0339.049-.0439.0199-.01.0422-.0144.0645-.0128.0222.0016.0436.0092.0619.022s.0329.0303.0421.0506c.6056 1.3574 1.1282 3.0454.8835 4.0965-.1045.4323-.3908 1.0179-.713 1.5591-.0418.0789-.0875.1561-.136.2306-.0114.0168-.0267.0306-.0447.0401s-.0381.0144-.0584.0142h-3.7283c-.1003 0-.1588-.1087-.1059-.1904z"/><path d="m26.9999 20.4618v.8975c0 .0518-.0315.0976-.0772.1176-.2807.1204-1.2414.5614-1.6408 1.1169-1.0196 1.4187-1.7984 3.4478-3.5396 3.4478h-7.2636c-2.5743 0-4.66058-2.0932-4.66058-4.6764v-.0828c0-.0689.05574-.1246.12459-.1246h4.04929c.08 0 .1389.0744.1316.1533-.0285.2677.0218.5378.1447.7774.1177.2381.2997.4386.5254.5788.2256.1401.486.2144.7517.2144h2.0046v-1.565h-1.9818c-.0232-.0003-.0458-.0069-.0656-.0191-.0197-.0123-.0357-.0296-.0463-.0502-.0106-.0207-.0154-.0438-.0139-.067.0016-.0231.0094-.0454.0227-.0644.0218-.0329.046-.0669.0716-.1059.2586-.3722.4995-.7564.7219-1.1512.1818-.3177.3579-.6572.4995-.9978.0287-.0616.0516-.1246.0744-.1862.0388-.1087.0789-.2105.1076-.3122.0285-.0858.0516-.1761.0745-.2606.0671-.2893.0958-.5956.0958-.9134 0-.1246-.0055-.255-.0172-.3796-.0056-.136-.0229-.272-.0402-.4081-.0133-.122-.0319-.2433-.0557-.3637-.0299-.183-.068-.3645-.1143-.5441l-.0159-.0685c-.0346-.1246-.063-.2434-.1031-.368-.1108-.3813-.238-.7578-.381-1.1282-.0502-.1419-.1073-.2779-.1645-.414-.0844-.2048-.1706-.3907-.2492-.5669-.0401-.0803-.0744-.1533-.1087-.2277-.0382-.0837-.0779-.1668-.119-.2492-.0287-.0613-.0616-.1187-.0844-.1761l-.245-.4524c-.0077-.0137-.0112-.0294-.01-.045.0012-.0157.007-.0306.0166-.043s.0227-.0216.0376-.0266.0309-.0055.0461-.0014l1.5321.4153h.0042c.0028 0 .0045.0014.0056.0014l.2021.0558.2218.063.0817.0228v-.9106c0-.4395.3523-.796.7874-.796.2177 0 .4153.0886.5572.2333.1416.1449.2305.3423.2305.563v1.3515l.163.0458c.0134.0041.026.0104.0374.0186.0401.0301.0975.0745.1703.1288.0574.0457.119.1017.1934.1589.1475.119.3233.272.5168.4482.0515.0446.1017.0903.1477.136.2775.2554.5426.5239.7944.8047.0747.0844.1477.1703.2221.2606.0744.0917.1533.1817.2219.272.0903.1204.1876.245.272.3752.0402.0616.0859.1246.1246.1862.1087.1644.2046.335.2963.5053.0387.0789.0789.1647.1132.2492.1017.2277.1817.4599.2333.6915.0158.0502.0273.1045.0328.1533v.0114c.0173.0689.0232.1419.0288.2163.0237.2388.0102.4798-.0402.7144-.0221.1014-.0503.2013-.0844.2994-.0343.0975-.0686.199-.1132.2948-.0863.2029-.1892.3983-.3077.5843-.0388.0685-.0845.1416-.1305.2104-.0501.073-.1014.1419-.1474.209-.063.0859-.1302.1762-.199.2565-.0613.0844-.1246.1689-.1932.2433-.092.1099-.1865.2177-.2834.3233-.0575.0675-.1191.1363-.182.1979-.0614.0686-.1246.1302-.1818.1876-.0959.0959-.1761.1703-.2433.2319l-.1575.1447c-.0234.0203-.0534.0315-.0844.0315h-1.2203v1.565h1.5349c.3424-.0002.6735-.1226.9335-.3453.0903-.0786.4839-.4195.9493-.9335.0156-.0174.036-.0298.0586-.0357l4.2397-1.2258c.0186-.0052.0381-.006.0571-.0024.0189.0036.0368.0115.0522.0232.0154.0116.0279.0267.0365.044s.0133.0363.0133.0556z"/></g></svg>

<svg width="36" height="37" viewBox="0 0 36 37" fill="none" xmlns="http://www.w3.org/2000/svg">
<circle cx="18" cy="18.7598" r="17.25" stroke="black" stroke-opacity="0.1" stroke-width="1.5"/>
<path d="M10.8407 19.4075L10.9009 19.313L14.526 13.6415C14.5381 13.6227 14.555 13.6076 14.575 13.5976C14.5949 13.5876 14.6172 13.5832 14.6395 13.5848C14.6617 13.5864 14.6831 13.594 14.7014 13.6068C14.7197 13.6196 14.7343 13.6371 14.7435 13.6574C15.3491 15.0148 15.8717 16.7028 15.627 17.7539C15.5225 18.1862 15.2362 18.7718 14.914 19.313C14.8722 19.3919 14.8265 19.4691 14.778 19.5436C14.7666 19.5604 14.7513 19.5742 14.7333 19.5837C14.7153 19.5932 14.6952 19.5981 14.6749 19.5979H10.9466C10.8463 19.5979 10.7878 19.4892 10.8407 19.4075Z" fill="black" fill-opacity="0.5"/>
<path d="M26.9999 20.4618V21.3593C26.9999 21.4111 26.9684 21.4569 26.9227 21.4769C26.642 21.5973 25.6813 22.0383 25.2819 22.5938C24.2623 24.0125 23.4835 26.0416 21.7423 26.0416H14.4787C11.9044 26.0416 9.81812 23.9484 9.81812 21.3652V21.2824C9.81812 21.2135 9.87386 21.1578 9.94271 21.1578H13.992C14.072 21.1578 14.1309 21.2322 14.1236 21.3111C14.0951 21.5788 14.1454 21.8489 14.2683 22.0885C14.386 22.3266 14.568 22.5271 14.7937 22.6673C15.0193 22.8074 15.2797 22.8817 15.5454 22.8817H17.55V21.3167H15.5682C15.545 21.3164 15.5224 21.3098 15.5026 21.2976C15.4829 21.2853 15.4669 21.268 15.4563 21.2474C15.4457 21.2267 15.4409 21.2036 15.4424 21.1804C15.444 21.1573 15.4518 21.135 15.4651 21.116C15.4869 21.0831 15.5111 21.0491 15.5367 21.0101C15.7953 20.6379 16.0362 20.2537 16.2586 19.8589C16.4404 19.5412 16.6165 19.2017 16.7581 18.8611C16.7868 18.7995 16.8097 18.7365 16.8325 18.6749C16.8713 18.5662 16.9114 18.4644 16.9401 18.3627C16.9686 18.2769 16.9917 18.1866 17.0146 18.1021C17.0817 17.8128 17.1104 17.5065 17.1104 17.1887C17.1104 17.0641 17.1049 16.9337 17.0932 16.8091C17.0876 16.6731 17.0703 16.5371 17.053 16.401C17.0397 16.279 17.0211 16.1577 16.9973 16.0373C16.9674 15.8543 16.9293 15.6728 16.883 15.4932L16.8671 15.4247C16.8325 15.3001 16.8041 15.1813 16.764 15.0567C16.6532 14.6754 16.526 14.2989 16.383 13.9285C16.3328 13.7866 16.2757 13.6506 16.2185 13.5145C16.1341 13.3097 16.0479 13.1238 15.9693 12.9476C15.9292 12.8673 15.8949 12.7943 15.8606 12.7199C15.8224 12.6362 15.7827 12.5531 15.7416 12.4707C15.7129 12.4094 15.68 12.352 15.6572 12.2946L15.4122 11.8422C15.4045 11.8285 15.401 11.8128 15.4022 11.7972C15.4034 11.7815 15.4092 11.7666 15.4188 11.7542C15.4284 11.7418 15.4415 11.7326 15.4564 11.7276C15.4713 11.7226 15.4873 11.7221 15.5025 11.7262L17.0346 12.1415H17.0388C17.0416 12.1415 17.0433 12.1429 17.0444 12.1429L17.2465 12.1987L17.4683 12.2617L17.55 12.2845V11.3739C17.55 10.9344 17.9023 10.5779 18.3374 10.5779C18.5551 10.5779 18.7527 10.6665 18.8946 10.8112C19.0362 10.9561 19.1251 11.1535 19.1251 11.3742V12.7257L19.2881 12.7715C19.3015 12.7756 19.3141 12.7819 19.3255 12.7901C19.3656 12.8202 19.423 12.8646 19.4958 12.9189C19.5532 12.9646 19.6148 13.0206 19.6892 13.0778C19.8367 13.1968 20.0125 13.3498 20.206 13.526C20.2575 13.5706 20.3077 13.6163 20.3537 13.662C20.6312 13.9174 20.8963 14.1859 21.1481 14.4667C21.2228 14.5511 21.2958 14.637 21.3702 14.7273C21.4446 14.819 21.5235 14.909 21.5921 14.9993C21.6824 15.1197 21.7797 15.2443 21.8641 15.3745C21.9043 15.4361 21.95 15.4991 21.9887 15.5607C22.0974 15.7251 22.1933 15.8957 22.285 16.066C22.3237 16.1449 22.3639 16.2307 22.3982 16.3152C22.4999 16.5429 22.5799 16.7751 22.6315 17.0067C22.6473 17.0569 22.6588 17.1112 22.6643 17.16V17.1714C22.6816 17.2403 22.6875 17.3133 22.6931 17.3877C22.7168 17.6265 22.7033 17.8675 22.6529 18.1021C22.6308 18.2035 22.6026 18.3034 22.5685 18.4015C22.5342 18.499 22.4999 18.6005 22.4553 18.6963C22.369 18.8992 22.2661 19.0946 22.1476 19.2806C22.1088 19.3491 22.0631 19.4222 22.0171 19.491C21.967 19.564 21.9157 19.6329 21.8697 19.7C21.8067 19.7859 21.7395 19.8762 21.6707 19.9565C21.6094 20.0409 21.5461 20.1254 21.4775 20.1998C21.3855 20.3097 21.291 20.4175 21.1941 20.5231C21.1366 20.5906 21.075 20.6594 21.0121 20.721C20.9507 20.7896 20.8875 20.8512 20.8303 20.9086C20.7344 21.0045 20.6542 21.0789 20.587 21.1405L20.4295 21.2852C20.4061 21.3055 20.3761 21.3167 20.3451 21.3167H19.1248V22.8817H20.6597C21.0021 22.8815 21.3332 22.7591 21.5932 22.5364C21.6835 22.4578 22.0771 22.1169 22.5425 21.6029C22.5581 21.5855 22.5785 21.5731 22.6011 21.5672L26.8408 20.3414C26.8594 20.3362 26.8789 20.3354 26.8979 20.339C26.9168 20.3426 26.9347 20.3505 26.9501 20.3622C26.9655 20.3738 26.978 20.3889 26.9866 20.4062C26.9952 20.4235 26.9999 20.4425 26.9999 20.4618Z" fill="black" fill-opacity="0.5"/>
</svg>
